hw8Responsive/images/logos/contentlogo/bluebox/baseline-ondemand_video-24px.svg

<svg width="40" height="40" viewBox="0 0 40 40" fill="none" xmlns="http://www.w3.org/2000/svg">
<path d="M35.0003 5H5.00033C3.15033 5 1.66699 6.48333 1.66699 8.33333V28.3333C1.66699 30.1667 3.15033 31.6667 5.00033 31.6667H13.3337V35H26.667V31.6667H35.0003C36.8337 31.6667 38.317 30.1667 38.317 28.3333L38.3337 8.33333C38.3337 6.48333 36.8337 5 35.0003 5ZM35.0003 28.3333H5.00033V8.33333H35.0003V28.3333ZM26.667 18.3333L15.0003 25V11.6667L26.667 18.3333Z" fill="white"/>
</svg>

<svg width="40" height="40" fill="none" xmlns="http://www.w3.org/2000/svg"><path d="M35 5H5a3.322 3.322 0 00-3.333 3.333v20A3.332 3.332 0 005 31.667h8.334V35h13.333v-3.333H35c1.834 0 3.317-1.5 3.317-3.334l.017-20C38.334 6.483 36.834 5 35 5zm0 23.333H5v-20h30v20zm-8.333-10L15 25V11.667l11.667 6.666z" fill="#fff"/></svg>
